X:1
T:第二圆舞曲
T:The Second Waltz
T:Dmitri Shostakovichi (1906 - 1975)
T:for Flute and Guitar
T:中南民族大学交响乐团
T:中南民族大学交响乐团
C:肖斯塔科维奇
Z:中南民族大学交响乐团
%%score 1 ( 2 3 )
L:1/8
Q:1/4=160
M:3/4
K:C
V:1 treble nm="Flute" snm="Fl."
V:2 treble-8 nm="Guitar" snm="Guit."
V:3 treble-8 
V:1
 z6 | z6 | z6 | z6 |:!p! (e6 | c4 B2 | A6- | A2) (A2 B2 | c2 A2 c2 | e4 f2 | e6 | d6) | (d6 | %13
 B4 A2 | ^G6- | G2) E2 ^G2 | B2 ^G2 B2 | d2 e2 f2 | ^d6 | e6 |!p! (c'6 | b4 a2 | g4 f2 | d6) | %24
 (b6 | a4 g2) | (g4 e2) |!p! z2 .c2 .d2 | .e2 (((ed))) (((ef))) | .d2 (((dc))) (((de))) | %30
 .c2 z2 .e2 | z2 .c2 .d2 | .e2 (((ed))) (((ef))) | .d2 (((dc))) (((de))) | .c2 z2 .e2 |1 %35
 z2 .A2 .B2 | .c2 (((cB))) (((cd))) | .B2 (((BA))) (((Bc))) | .A2 z4 | z6 :|2 z2 .a2 .b2 | %41
 .c'2 ((((c'b)))) ((c'd')) | .b2 ((ba)) ((bc')) | .a2 z4 || z4!f!!f! !>!g2 | c'6 | c'6 | %47
 ((c'2 b2 a2 | g2 e2 g2)) | b6 | b6 | ((a2 g2 e2 | c2 d2 e2)) | a6 | g6 | ((g2 f2 e2 | d2 c2 d2)) | %57
 ((e4 g2)) | ((d4 g2)) | ((e4 g2)) | ((c'4 d'2)) | e'6 | e'6 | ((e'2 d'2 c'2 | b2 g2 b2)) | d'6 | %66
 d'6 | ((d'2 c'2 b2 | a2 e2 g2)) | c'6 | c'6 | c'6 | ((d'2 c'2 d'2 | e'4 c'2)) | ((g2 a2 b2 | %75
 c'2 d'2 c'2 | _b2 a2 ^g2 | (a4)) c2- | c2 B2 c2) | (a4 c2- | c2 _b2 a2) | (a4 g2) | (^f4 g2) | %83
 (d'4 c'2) | (_b2 a2 g2) | (a4 c2- | c2 B2 c2) | (a4 c2- | c2 d2 e2) | (f4 g2) | (a4 a2) | %91
 (b2 a2 b2 | c'4 _b2) |!f! (a4 c2- | c2 B2 c2) | (a4 c2- | c2 _b2 a2) | (a4 g2) | (^f4 g2) | %99
 (d'4 c'2) | (_b2 a2 g2) | (a4 c2- | c2 B2 c2) | (a4 c2- | c2 d2 e2) | (f4 g2) | ((a4 a2) | %107
 b2 a2 b2 | (c'6) |!>(! (c'4) !fermata!b2)!>)! | z6 | z6 | z6 | z6 |:!mf! (e6 | c4 B2 | A6- | %117
 A2) (A2 B2 | c2 A2 c2 | e4 f2 | e6 | d6) | (d6 | B4 A2 | ^G6- | G2) E2 ^G2 | B2 ^G2 B2 | %127
 d2 e2 f2 | ^d6 | e6 |!p!!p! ((c'6 | b4 a2 | g4 f2 | d6)) | (b6 | a4 g2) | (g4 e2) | z2 .c2 .d2 | %138
 .e2 ((ed)) ((ef)) | .d2 ((dc)) ((de)) | .c2 z2 .e2 | z2 .c2 .d2 | .e2 ((ed)) ((ef)) | %143
 .d2 ((dc)) ((de)) | .c2 z2 .e2 |1 z2 .A2 .B2 | .c2 ((cB)) ((cd)) | .B2 ((BA)) ((Bc)) | .A2 z4 | %149
 z6 :|2 z2 .a2 .b2 || .c'2 ((((c'b)))) ((c'd')) | .b2 ((ba)) ((bc')) | .a2 z2 !>!e'2 | !>!a'2 z4 |] %155
V:2
 z2 [Ace]2 [Ace]2 | z2 [Ace]2 [Ace]2 | z2 [Ace]2 [Ace]2 | z2 [Ace]2 [Ace]2 |: z2 [EAc]2 [EAc]2 | %5
 z2 [EAc]2 [EAc]2 | z2 [EAc]2 [EAc]2 | z2 [EAc]2 [EAc]2 | z2 [EAc]2 [EAc]2 | z2 [EAc]2 [EAc]2 | %10
 z2 [DFA]2 [DFA]2 | z2 [DFA]2 [DFA]2 | z2 [DFA]2 [DFA]2 | z2 [DFA]2 [DFA]2 | z2 [EBd]2 [EBd]2 | %15
 z2 [EBd]2 [EBd]2 | z2 [^GBd]2 [GBd]2 | z2 [^GBd]2 [GBd]2 | z2 [EAc]2 [EAc]2 | z2 [EAc]2 [EAc]2 | %20
 z2 [EAc]2 [EAc]2 | z2 [EAc]2 [EAc]2 | z2 [FAd]2 [FAd]2 | z2 [FAd]2 [FAd]2 | z2 [FBd]2 [FBd]2 | %25
 z2 [FBd]2 [FBd]2 | z2 [Gce]2 [Gce]2 | z2 [Ac]2 [Bd]2 | [ce]2 z4 | [Bd]2 z4 | [Ac]2 z2 [ce]2 | %31
 z2 [Ac]2 [Bd]2 | [ce]2 z4 | [Bd]2 z4 | [Ac]2 z2 [ce]2 |1 z2 [CA]2 [DB]2 | [Ec]2 z4 | [DB]2 z4 | %38
 z2 [Ace]2 [Ace]2 | [EAce]6 :|2 z2 [CA]2 [DB]2 | [Ec]2 z4 | [DB]2 [ca]2 [db]2 | %43
!mf! z2 [Ace]2 [Ace]2 ||!mf! [ce]2 z2!f! !>![fb]2 | z2!f! [Gce]2 [Gce]2 | z2 [Gce]2 [Gce]2 | %47
 z2 [Gce]2 [Gce]2 | z2 [Gce]2 [Gce]2 | z2 [GBf]2 [GBf]2 | z2 [GBf]2 [GBf]2 | z2 [Gce]2 [Gce]2 | %52
 z2 [Gce]2 [Gce]2 | z2 [GA^c]2 [GAc]2 | z2 [GA^c]2 [GAc]2 | z2 [Adg]2 [A^cg]2 | %56
 z2 [Acdf]2 [Acdf]2 | z2 [Gce]2 [Gce]2 | z2 [GBf]2 [GBf]2 | z2 [Gce]2 [Gce]2 | z2 [Gce]2 [Fcd]2 | %61
 z2 [Gce]2 [Gce]2 | z2 [Gce]2 [Gce]2 | z2 [Gce]2 [Gce]2 | z2 [Gce]2 [Gce]2 | z2 [GBf]2 [GBf]2 | %66
 z2 [GBf]2 [GBf]2 | z2 [Gce]2 [Gce]2 | z2 [Gce]2 [Gce]2 | z2 [Gce]2 [Gce]2 | z2 [Gce]2 [Gce]2 | %71
 z2 [Acf]2 [Acf]2 | z2 [Fcd]2 [Fcd]2 | z2 [Gce]2 [Gce]2 | z2 [Bfg]2 [Bfg]2 | [ceg]2 z4 | %76
 [ce_b]2 z4 | z2 [cfa]2 [cfa]2 | z2 [cfa]2 [cfa]2 | z2 [cfa]2 [cfa]2 | z2 [cfa]2 [cfa]2 | %81
 z2 [ce_b]2 [cdb]2 | z2 [ce_b]2 [cdb]2 | z2 [ce_b]2 [cdb]2 | z2 [ce_b]2 [cdb]2 | z2 [cfa]2 [cfa]2 | %86
 z2 [cfa]2 [cfa]2 | z2 [cfa]2 [cfa]2 | z2 [cfa]2 [cfa]2 | z2 [df_b]2 [dfb]2 | z2 [dfb]2 [dfb]2 | %91
 z2 [dfb]2 [dfb]2 | z2 [ce_b]2 [ceb]2 | z cfafc | z cfafc | z cfafc | z cfafc | z ce_bdc | %98
 z ce_bdc | z ce_bdc | z ce_bdc | z cfafc | z cfafc | z cfafc | z cfafc | z df_bfd | z dfbfd | %107
 (de) (.f.g) .a.b | (c'd') (.c'.b) .c'.d' |!>(!!>(!!>(!!>(!!>(! !fermata!e'6!>)!!>)!!>)!!>)!!>)! | %110
 z2 [Ace]2 [Ace]2 | z2 [Ace]2 [Ace]2 | z2 [Ace]2 [Ace]2 | z2 [Ace]2 [Ace]2 |: z2 [EAc]2 [EAc]2 | %115
 z2 [EAc]2 [EAc]2 | z2 [EAc]2 [EAc]2 | z2 [EAc]2 [EAc]2 | z2 [EAc]2 [EAc]2 | z2 [EAc]2 [EAc]2 | %120
 z2 [DFA]2 [DFA]2 | z2 [DFA]2 [DFA]2 | z2 [DFA]2 [DFA]2 | z2 [DFA]2 [DFA]2 | z2 [EBd]2 [EBd]2 | %125
 z2 [EBd]2 [EBd]2 | z2 [^GBd]2 [GBd]2 | z2 [^GBd]2 [GBd]2 | z2 [EAc]2 [EAc]2 | z2 [EAc]2 [EAc]2 | %130
 z2 [EAc]2 [EAc]2 | z2 [EAc]2 [EAc]2 | z2 [FAd]2 [FAd]2 | z2 [FAd]2 [FAd]2 | z2 [FBd]2 [FBd]2 | %135
 z2 [FBd]2 [FBd]2 | z2 [Gce]2 [Gce]2 | z2 [Ac]2 [Bd]2 | [ce]2 z4 | [Bd]2 z4 | [Ac]2 z2 [ce]2 | %141
 z2 [Ac]2 [Bd]2 | [ce]2 z4 | [Bd]2 z4 | [Ac]2 z2 [ce]2 |1 z2 [CA]2 [DB]2 | [Ec]2 z4 | [DB]2 z4 | %148
 z2 [EAce]2 [EAce]2 | !fermata![EAce]6 :|2 z2 [CA]2 [DB]2 || [Ec]2 z4 | [DB]2 z4 | .a2 z2 !>!e2 | %154
 !>!a2 z4 |] %155
V:3
 A,2 x4 | E,2 x4 | A,2 x4 | E,2 x4 |: A,2 x4 | E,2 x4 | A,2 x4 | E,2 x4 | A,2 x4 | E,2 x4 | %10
 B,2 x4 | E,2 x4 | B,2 x4 | E,2 x4 | B,2 x4 | E,2 x4 | B,2 x4 | E,2 x4 | A,2 x4 | E,2 x4 | A,2 x4 | %21
 E,2 x4 | D2 x4 | D2 x4 | G,2 x4 | G,2 x4 | C2 x4 | x6 | x6 | x6 | x6 | x6 | x6 | x6 | x6 |1 x6 | %36
 x6 | x6 | A,2 x4 | x6 :|2 x6 | x6 | x6 | C2 x4 || x6 | C2 x4 | C2 x4 | C2 x4 | G,2 x4 | B,2 x4 | %50
 B,2 x4 | A,2 x4 | C2 x4 | A,2 x4 | G,2 x4 | G,2 x4 | D2 x4 | E2 x4 | D2 x4 | E2 x4 | C2 x4 | %61
 E2 x4 | E2 x4 | E2 x4 | B,2 x4 | D2 x4 | D2 x4 | D2 x4 | A,2 x4 | C2 x4 | C2 x4 | C2 x4 | D2 x4 | %73
 E2 x4 | G,2 x4 | x6 | x6 | F2 x4 | C2 x4 | F2 x4 | C2 x4 | G2 x4 | C2 x4 | G2 x4 | C2 x4 | F2 x4 | %86
 C2 x4 | F2 x4 | C2 x4 | _B,2 x4 | A,2 x4 | G,2 x4 | C2 x4 | F2 x4 | C2 x4 | F2 x4 | C2 x4 | %97
 G2 x4 | C2 x4 | G2 x4 | C2 x4 | F2 x4 | C2 x4 | F2 x4 | C2 x4 | _B,2 x4 | A,2 x4 | G,2 x4 | %108
 C2 x4 | x6 | A,2 x4 | E,2 x4 | A,2 x4 | E,2 x4 |: A,2 x4 | E,2 x4 | A,2 x4 | E,2 x4 | A,2 x4 | %119
 E,2 x4 | B,2 x4 | E,2 x4 | B,2 x4 | E,2 x4 | B,2 x4 | E,2 x4 | B,2 x4 | E,2 x4 | A,2 x4 | E,2 x4 | %130
 A,2 x4 | E,2 x4 | D2 x4 | D2 x4 | G,2 x4 | G,2 x4 | C2 x4 | x6 | x6 | x6 | x6 | x6 | x6 | x6 | %144
 x6 |1 x6 | x6 | x6 | x6 | x6 :|2 x6 || x6 | x6 | x6 | x6 |] %155

